X:1
T:Get Up And Go
M:3/4
L:1/4
K:C
 A3/2 ^G/2 A| c2 A| G3/2 ^F/2 G| E2 E| F E F| D2 F| A G ^F| G2 G/2G/2|\
 A ^G A| c2 A| G ^F G| E2 G| G G G| G G G| F/2 E3/2 D| C3| E E E| E E2|\
 F E F| D2 E| F F F| F F G/2G/2| G ^F G| E2 G/2G/2| A A A| F F A| G G G|\
 E2 E| D D D| D D D| c B A| G2 E| E E E| E/2 E3/2 E| F E F| D3/2 D/2 E|\
 F F F| F E F| G ^F G| G2 G/2G/2| A A A| F F A| G G G| E z G| G2 G/2G/2|\
 G G G| F E D| C3/2 z/2 z|
